svgs/1F467-1F3FF.svg

<svg xmlns="http://www.w3.org/2000/svg" xmlns:xlink="http://www.w3.org/1999/xlink" preserveAspectRatio="none" viewBox="0 0 72 72"><defs><path id="a" fill="#232020" d="M102.5 91.65q16-14.75 16-35.55 0-20.85-16-35.55Q86.55 5.8 64 5.8q-22.6 0-38.55 14.75Q9.5 35.25 9.5 56.1q0 20.8 15.95 35.55 16 14.75 38.55 14.75 22.55 0 38.5-14.75z"/><path id="b" fill="#563E37" d="M108.6 69.8h-3.8v21.4q5.05 0 8.3-2.55 3.8-2.95 3.8-8.45 0-5.6-4.15-8.55l-4.15-1.85z"/><path id="c" fill="#563E37" d="M23.15 69.8h-3.8l-4.15 1.85q-4.15 2.95-4.15 8.55 0 5.5 3.8 8.45 3.25 2.55 8.3 2.55V69.8z"/><path id="d" fill="#232020" d="M63.35 59.8q-.3-1.9-1.2-3.5-1.85-3.2-6.05-3.4-3.55-.15-6 2.35-2.55 2.6-1.8 6 1 4.4 5.6 6.2 4.2 1.65 8.5.25 1.1-.35 2.2-1.15 1.5-1.15 1.15-2.05-.15-.25-.7-.5-.65-.25-.8-.4-.55-.45-.7-1.8-.1-1.5-.2-2z"/><path id="e" fill="#232020" d="M39.2 98.45Q34.9 94 28.55 94.1q-7.45.15-10.8 5.85-1.55 2.55-2.25 6.15-.15.9-.4 3.6-.35 2.4-1.35 3.15-.25.2-1.4.7-.95.4-1.2.9-.8 1.6 1.9 3.6 2 1.55 3.85 2.1 7.65 2.6 15.15-.2 8.25-3.05 10.15-10.8 1.45-6.1-3-10.7z"/><path id="f" fill="#8E726A" d="M95.55 43q-5.35-6.7-14.5-10.3-8.1-3.2-17.05-3.2-8.95 0-17.1 3.2-9.15 3.6-14.5 10.3-11.25 14-11.2 37 .05 10.05 2.85 17.2 3.05 7.7 9.85 13.35 13.25 11.1 29.45 11.1 8.25 0 16.2-2.75 8.4-2.95 14.5-8.3 6.7-5.9 9.75-13.45 2.9-7.25 2.95-17.15.05-23-11.2-37z"/><path id="g" fill="#563E37" d="M57.75 89.65q-.65-.2-1 .3-.3.45 0 .95.7 1.2 2.5 2.3 2.25 1.4 4.75 1.4 2.45 0 4.75-1.4 1.75-1.1 2.45-2.3.3-.5 0-.95-.3-.5-.95-.3-3.2.95-6.25.95t-6.25-.95z"/><path id="h" fill="#513F35" d="M78.4 100.55q-.35-.7-1.5-.7H51.05q-1.15 0-1.5.7-.35.7.35 1.75 1.35 2.1 4.7 3.85 4.3 2.3 9.4 2.3 5.05 0 9.35-2.3 3.3-1.75 4.7-3.85.75-1.05.35-1.75z"/><path id="i" fill="#232020" d="M108.1 74.35l3.45-6.7 4.9-15.05-4.7-16.75-35.55-23.7H51.55L16 35.85 11.35 52.6l4.9 15.05 3.45 6.7Q32.65 71.4 46.3 63.1q11.85-7.2 16.95-13.55.25-.3.65-.3t.6.3q5.15 6.4 16.8 13.5 13.5 8.25 26.8 11.3z"/><path id="j" fill="#444" d="M40.15 72.35q-1.7 2-1.7 4.85 0 2.9 1.7 4.9 1.65 2 4.05 2 2.35 0 4.05-2 1.65-2.05 1.65-4.9 0-2.85-1.65-4.85-1.7-2.05-4.05-2.05-2.4 0-4.05 2.05z"/><path id="k" fill="#444" d="M87.85 72.35q-1.7-2.05-4.05-2.05-2.4 0-4.05 2.05-1.7 2-1.7 4.85 0 2.85 1.7 4.9 1.65 2 4.05 2 2.35 0 4.05-2 1.65-2 1.65-4.9 0-2.85-1.65-4.85z"/></defs><use transform="scale(.5625)" xlink:href="#a"/><use transform="scale(.5625)" xlink:href="#b"/><use transform="scale(.5625)" xlink:href="#c"/><use xlink:href="#d"/><use transform="scale(.5625)" xlink:href="#e"/><use transform="scale(.5625)" xlink:href="#f"/><use transform="scale(.5625)" xlink:href="#g"/><use transform="scale(.5625)" xlink:href="#h"/><use transform="scale(.5625)" xlink:href="#i"/><use transform="translate(0 1.75) scale(.5625)" xlink:href="#j"/><use transform="translate(0 1.75) scale(.5625)" xlink:href="#k"/></svg>

<svg xmlns="http://www.w3.org/2000/svg" version="1.1" xmlns:xlink="http://www.w3.org/1999/xlink" preserveAspectRatio="none" x="0px" y="0px" width="72px" height="72px" viewBox="0 0 72 72">
<defs>
<g id="Layer0_0_MEMBER_0_FILL">
<path fill="#232020" stroke="none" d="
M 102.5 91.65
Q 118.5 76.9 118.5 56.1 118.5 35.25 102.5 20.55 86.55 5.8 64 5.8 41.4 5.8 25.45 20.55 9.5 35.25 9.5 56.1 9.5 76.9 25.45 91.65 41.45 106.4 64 106.4 86.55 106.4 102.5 91.65 Z"/>
</g>

<g id="Layer0_0_MEMBER_1_MEMBER_0_FILL">
<path fill="#563E37" stroke="none" d="
M 108.6 69.8
L 104.8 69.8 104.8 91.2
Q 109.85 91.2 113.1 88.65 116.9 85.7 116.9 80.2 116.9 74.6 112.75 71.65
L 108.6 69.8 Z"/>
</g>

<g id="Layer0_0_MEMBER_1_MEMBER_1_FILL">
<path fill="#563E37" stroke="none" d="
M 23.15 69.8
L 19.35 69.8 15.2 71.65
Q 11.05 74.6 11.05 80.2 11.05 85.7 14.85 88.65 18.1 91.2 23.15 91.2
L 23.15 69.8 Z"/>
</g>

<g id="Layer0_0_MEMBER_2_MEMBER_0_MEMBER_0_FILL">
<path fill="#232020" stroke="none" d="
M 63.35 59.8
Q 63.05 57.9 62.15 56.3 60.3 53.1 56.1 52.9 52.55 52.75 50.1 55.25 47.55 57.85 48.3 61.25 49.3 65.65 53.9 67.45 58.1 69.1 62.4 67.7 63.5 67.35 64.6 66.55 66.1 65.4 65.75 64.5 65.6 64.25 65.05 64 64.4 63.75 64.25 63.6 63.7 63.15 63.55 61.8 63.45 60.3 63.35 59.8 Z"/>
</g>

<g id="Layer0_0_MEMBER_2_MEMBER_1_MEMBER_0_FILL">
<path fill="#232020" stroke="none" d="
M 39.2 98.45
Q 34.9 94 28.55 94.1 21.1 94.25 17.75 99.95 16.2 102.5 15.5 106.1 15.35 107 15.1 109.7 14.75 112.1 13.75 112.85 13.5 113.05 12.35 113.55 11.4 113.95 11.15 114.45 10.35 116.05 13.05 118.05 15.05 119.6 16.9 120.15 24.55 122.75 32.05 119.95 40.3 116.9 42.2 109.15 43.65 103.05 39.2 98.45 Z"/>
</g>

<g id="Layer0_0_MEMBER_3_MEMBER_0_FILL">
<path fill="#8E726A" stroke="none" d="
M 95.55 43
Q 90.2 36.3 81.05 32.7 72.95 29.5 64 29.5 55.05 29.5 46.9 32.7 37.75 36.3 32.4 43 21.15 57 21.2 80 21.25 90.05 24.05 97.2 27.1 104.9 33.9 110.55 47.15 121.65 63.35 121.65 71.6 121.65 79.55 118.9 87.95 115.95 94.05 110.6 100.75 104.7 103.8 97.15 106.7 89.9 106.75 80 106.8 57 95.55 43 Z"/>
</g>

<g id="Layer0_0_MEMBER_4_FILL">
<path fill="#563E37" stroke="none" d="
M 57.75 89.65
Q 57.1 89.45 56.75 89.95 56.45 90.4 56.75 90.9 57.45 92.1 59.25 93.2 61.5 94.6 64 94.6 66.45 94.6 68.75 93.2 70.5 92.1 71.2 90.9 71.5 90.4 71.2 89.95 70.9 89.45 70.25 89.65 67.05 90.6 64 90.6 60.95 90.6 57.75 89.65 Z"/>
</g>

<g id="Layer0_0_MEMBER_5_FILL">
<path fill="#513F35" stroke="none" d="
M 78.4 100.55
Q 78.05 99.85 76.9 99.85
L 51.05 99.85
Q 49.9 99.85 49.55 100.55 49.2 101.25 49.9 102.3 51.25 104.4 54.6 106.15 58.9 108.45 64 108.45 69.05 108.45 73.35 106.15 76.65 104.4 78.05 102.3 78.8 101.25 78.4 100.55 Z"/>
</g>

<g id="Layer0_0_MEMBER_6_FILL">
<path fill="#232020" stroke="none" d="
M 108.1 74.35
L 111.55 67.65 116.45 52.6 111.75 35.85 76.2 12.15 51.55 12.15 16 35.85 11.35 52.6 16.25 67.65 19.7 74.35
Q 32.65 71.4 46.3 63.1 58.15 55.9 63.25 49.55 63.5 49.25 63.9 49.25 64.3 49.25 64.5 49.55 69.65 55.95 81.3 63.05 94.8 71.3 108.1 74.35 Z"/>
</g>

<g id="Layer0_0_MEMBER_7_MEMBER_0_FILL">
<path fill="#444444" stroke="none" d="
M 40.15 72.35
Q 38.45 74.35 38.45 77.2 38.45 80.1 40.15 82.1 41.8 84.1 44.2 84.1 46.55 84.1 48.25 82.1 49.9 80.05 49.9 77.2 49.9 74.35 48.25 72.35 46.55 70.3 44.2 70.3 41.8 70.3 40.15 72.35 Z"/>
</g>

<g id="Layer0_0_MEMBER_7_MEMBER_1_FILL">
<path fill="#444444" stroke="none" d="
M 87.85 72.35
Q 86.15 70.3 83.8 70.3 81.4 70.3 79.75 72.35 78.05 74.35 78.05 77.2 78.05 80.05 79.75 82.1 81.4 84.1 83.8 84.1 86.15 84.1 87.85 82.1 89.5 80.1 89.5 77.2 89.5 74.35 87.85 72.35 Z"/>
</g>
</defs>

<g id="Layer_1">
<g transform="matrix( 0.5625, 0, 0, 0.5625, 0,0) ">
<use xlink:href="#Layer0_0_MEMBER_0_FILL"/>
</g>

<g transform="matrix( 0.5625, 0, 0, 0.5625, 0,0) ">
<use xlink:href="#Layer0_0_MEMBER_1_MEMBER_0_FILL"/>
</g>

<g transform="matrix( 0.5625, 0, 0, 0.5625, 0,0) ">
<use xlink:href="#Layer0_0_MEMBER_1_MEMBER_1_FILL"/>
</g>

<g transform="matrix( 1, 0, 0, 1, 0,0) ">
<use xlink:href="#Layer0_0_MEMBER_2_MEMBER_0_MEMBER_0_FILL"/>
</g>

<g transform="matrix( 0.5625, 0, 0, 0.5625, 0,0) ">
<use xlink:href="#Layer0_0_MEMBER_2_MEMBER_1_MEMBER_0_FILL"/>
</g>

<g transform="matrix( 0.5625, 0, 0, 0.5625, 0,0) ">
<use xlink:href="#Layer0_0_MEMBER_3_MEMBER_0_FILL"/>
</g>

<g transform="matrix( 0.5625, 0, 0, 0.5625, 0,0) ">
<use xlink:href="#Layer0_0_MEMBER_4_FILL"/>
</g>

<g transform="matrix( 0.5625, 0, 0, 0.5625, 0,0) ">
<use xlink:href="#Layer0_0_MEMBER_5_FILL"/>
</g>

<g transform="matrix( 0.5625, 0, 0, 0.5625, 0,0) ">
<use xlink:href="#Layer0_0_MEMBER_6_FILL"/>
</g>

<g transform="matrix( 0.5625, 0, 0, 0.5625, 0,1.75) ">
<use xlink:href="#Layer0_0_MEMBER_7_MEMBER_0_FILL"/>
</g>

<g transform="matrix( 0.5625, 0, 0, 0.5625, 0,1.75) ">
<use xlink:href="#Layer0_0_MEMBER_7_MEMBER_1_FILL"/>
</g>
</g>
</svg>
